X: 124
M:2/4
L:1/16
K:Bb
vdc|BABc dcdB|efed c2vfue|dfBd ceAc|BABG F2(de)|
fbdf BdFB|DFBd f2veud|egfe dcBA|B2B2B2:|
|:vcB|ABG"4"A F2vfue|decd B2vguf|ecfe dBfd|cBAG F2GA|


